X: 32918
T: Powers Of Punch, The
R: jig
M: 6/8
K: Gmajor
|BAG AFD|GDC B,A,G,|G,GF GDB,|A,AA A2a|
bgb afa|gfe dBG|EcB AGA|BGG G2z:|

